X: 257
T: Humours of Whiskey
M:9/8
R:Slipjig
L:1/8
K:D
"G(Em)"gfe "Bm"fBB fBB|"G(Em)"gfe "Bm"fBB "D"fga|"G(Em)"gfe "Bm"fBB fBB|"A"agf efd cBA:|
"D"d2e fdf "A"ecA|"D"d2e fdf "G"gfe|"D"d2e fdf "Em"efg|"A"agf efd cBA:|


